X: 380
T:Textless Piece 4
N: Derived from Jos2839-Textless_piece_4.krn
C: Josquin des Prez
%%abc-version 2.0
%%abcx-abcm2ps-target-version 5.9.1 (29 Sep 2008)
%%abc-creator hum2abc beta
%%abcx-conversion-date 2019/02/12 16:15:55
%%abc-edited-by Jesse Rodin
%%abc-edited-by Will Watson 13/12/2011
%%abcx-initial-encoding-date 2011/12/13/
%%humdrum-veritas 2114580926
%%humdrum-veritas-data 604274515
%%linebreak <none>
%%barnumbers 0
L: 1/4
M: 2/1
Q: 1/2=120
%%staves [1 2 3 4]
V: 1 clef=treble
V: 2 clef=treble-8
V: 3 clef=treble-8
V: 4 clef=bass
K: F
[V:1] F6ED | 
[V:2] c8 | 
[V:3] F8 | 
[V:4] F,,8 | 
[V:1] C4D4 | 
[V:2] A4F4 | 
[V:3] E4D4 | 
[V:4] A,,4B,,4 | 
[V:1] C8 | 
[V:2] A8 | 
[V:3] F8 | 
[V:4] F,,8 | 
[V:1] z4C4 | 
[V:2] z4A3G | 
[V:3] z4F4 | 
[V:4] z4F,,4 | 
[V:1] E4D4 | 
[V:2] E2G3FG2 | 
[V:3] G4B4 | 
[V:4] C,3B,,G,,4 | 
[V:1] C8 | 
[V:2] E8 | 
[V:3] A8 | 
[V:4] A,,8 | 
[V:1] z2E2F2A2 | 
[V:2] z2e2d2c2- | 
[V:3] z4z2A2 | 
[V:4] z2C,2D,2F,2 | 
[V:1] G4F3G | 
[V:2] cBG2A4 | 
[V:3] c4d4 | 
[V:4] E,4D,4 | 
[V:1] ABcAB2G2- | 
[V:2] F2f2d2e2- | 
[V:3] A4G2c2- | 
[V:4] F,4G,2E,2- | 
[V:1] G2A3GFE | 
[V:2] edcBA2d2- | 
[V:3] cBAGF2B2- | 
[V:4] E,2F,3E,D,C, | 
[V:1] DCF4E2 | 
[V:2] d2B2c4- | 
[V:3] BAGFG4 | 
[V:4] D,4C,4 | 
[V:1] F8 | 
[V:2] c4z2c2 | 
[V:3] F8 | 
[V:4] F,,4z2F,2 | 
[V:1] z2F2G4 | 
[V:2] d2f2e2g2- | 
[V:3] z4c4 | 
[V:4] D,4E,4 | 
[V:1] A2c2B4 | 
[V:2] gff4e2 | 
[V:3] A4B4 | 
[V:4] F,4G,4 | 
[V:1] A6GF | 
[V:2] f4e2d2 | 
[V:3] c6BA | 
[V:4] F,2F,,2A,,2B,,2 | 
[V:1] E2F2G4 | 
[V:2] c2A2d2e2- | 
[V:3] G2F2B4 | 
[V:4] C,2D,2G,,2G,2 | 
[V:1] A2F2G4 | 
[V:2] edd4^c2 | 
[V:3] A2A4G2 | 
[V:4] F,2D,2E,4 | 
[V:1] F8 | 
[V:2] d8 | 
[V:3] A8 | 
[V:4] D,8 | 
[V:1] z4F4 | 
[V:2] z4A4 | 
[V:3] z4A4 | 
[V:4] z4D,3C, | 
[V:1] E4D4 | 
[V:2] A4F4 | 
[V:3] c4B4 | 
[V:4] A,,4B,,4 | 
[V:1] F6ED | 
[V:2] c6B2 | 
[V:3] A6GF | 
[V:4] F,,6G,,2 | 
[V:1] C2D2E2D2- | 
[V:2] A2d2cBAG | 
[V:3] E2D2G2F2 | 
[V:4] A,,2B,,2C,2F,,2 | 
[V:1] DCC4=B,2 | 
[V:2] F4G4 | 
[V:3] FEDCD4 | 
[V:4] A,,4G,,4 | 
[V:1] C8 | 
[V:2] E8 | 
[V:3] C8 | 
[V:4] A,,8 | 
[V:1] z4E4 | 
[V:2] z4A4 | 
[V:3] z4C4 | 
[V:4] z4A,,4 | 
[V:1] F3ED4 | 
[V:2] A4D4 | 
[V:3] F4G4 | 
[V:4] D,3C,B,,4 | 
[V:1] C8 | 
[V:2] E8 | 
[V:3] A8 | 
[V:4] A,,8 | 
[V:1] z4G4 | 
[V:2] z4c2c2- | 
[V:3] z4G4 | 
[V:4] z4C,4 | 
[V:1] F2A4GF | 
[V:2] cBAGF4 | 
[V:3] A2c4=B2 | 
[V:4] F,3E,D,4 | 
[V:1] E8 | 
[V:2] G8 | 
[V:3] c4c4 | 
[V:4] C,8 | 
[V:1] z4G4 | 
[V:2] z4e4 | 
[V:3] z4c4 | 
[V:4] z4C,4 | 
[V:1] F4B4 | 
[V:2] d4f4 | 
[V:3] A4d4 | 
[V:4] D,4B,,4 | 
[V:1] A4d2c2- | 
[V:2] f8 | 
[V:3] c4B2A2- | 
[V:4] F,4z2F,,2- | 
[V:1] cBAGF2E2- | 
[V:2] z4z2g2- | 
[V:3] AGFED2C2 | 
[V:4] F,,G,,A,,2B,,2C,2- | 
[V:1] EFG4C2- | 
[V:2] gfe2dGc2- | 
[V:3] c4B2A2- | 
[V:4] C,D,E,F,G,E,F,2- | 
[V:1] C2F4E2 | 
[V:2] cAB2c4 | 
[V:3] A2GFG4 | 
[V:4] F,2E,D,C,4 | 
[V:1] F8 |]  
[V:2] c8 |]  
[V:3] F8 |]  
[V:4] F,,8 |]  



